tools/download-figma-icons/icons/outlined-large/lightning.svg

<svg width="64" height="64" viewBox="0 0 64 64" fill="none" xmlns="http://www.w3.org/2000/svg">
<path fill-rule="evenodd" clip-rule="evenodd" d="M33.3179 3.0039C33.1459 3.0039 32.9309 3.0739 32.7509 3.3459L10.1239 36.2479C10.0459 36.3639 9.95594 36.5519 10.0319 36.6919C10.1119 36.8439 10.3699 36.9949 10.7659 36.9949H28.5159C29.3439 36.9949 30.0169 37.6669 30.0169 38.4949V60.2309C30.0169 60.7629 30.3589 60.9239 30.5049 60.9679C30.7119 61.0289 31.0039 61.0249 31.2529 60.6539L53.8739 27.3139C54.0709 27.0179 54.0079 26.6579 53.8819 26.4209C53.8129 26.2929 53.6129 25.9949 53.2369 25.9949H35.5199C34.6919 25.9949 34.0189 25.3229 34.0189 24.4949V3.7709C34.0189 3.2429 33.6699 3.0799 33.5189 3.0339C33.4639 3.0179 33.3959 3.0039 33.3179 3.0039ZM30.7069 63.9999C30.3529 63.9999 29.9929 63.9469 29.6339 63.8389C28.0679 63.3639 27.0149 61.9139 27.0149 60.2309V39.9949H10.7659C9.30294 39.9949 8.00694 39.2719 7.38294 38.1079C6.79594 37.0079 6.89094 35.6839 7.63794 34.5659L30.2639 1.6639C31.1879 0.2809 32.8129 -0.3151 34.3899 0.1639C35.9639 0.6399 37.0219 2.0899 37.0219 3.7709V22.9949H53.2369C54.6039 22.9949 55.8649 23.7659 56.5299 25.0069C57.2139 26.2859 57.1499 27.8119 56.3639 28.9889L33.7429 62.3289C33.0279 63.3999 31.9029 63.9999 30.7069 63.9999Z" fill="black"/>
</svg>

<svg width="64" height="64" viewBox="0 0 64 64" fill="none" xmlns="http://www.w3.org/2000/svg"><path fill-rule="evenodd" clip-rule="evenodd" d="M33.318 3.004c-.172 0-.387.07-.567.342L10.124 36.248c-.078.116-.168.304-.092.444.08.152.338.303.734.303h17.75a1.5 1.5 0 0 1 1.5 1.5V60.23c0 .532.343.693.489.737.207.06.499.057.748-.314l22.62-33.34c.198-.296.135-.656.009-.893-.07-.128-.27-.426-.645-.426H35.52a1.501 1.501 0 0 1-1.501-1.5V3.77c0-.528-.35-.691-.5-.737a.716.716 0 0 0-.201-.03ZM30.707 64c-.354 0-.714-.053-1.073-.161-1.566-.475-2.62-1.925-2.62-3.608V39.995H10.767c-1.463 0-2.76-.723-3.383-1.887-.587-1.1-.492-2.424.255-3.542L30.264 1.664c.924-1.383 2.549-1.98 4.126-1.5 1.574.476 2.632 1.926 2.632 3.607v19.224h16.215c1.367 0 2.628.77 3.293 2.012.684 1.279.62 2.805-.166 3.982l-22.621 33.34c-.715 1.07-1.84 1.67-3.036 1.67Z" fill="currentColor"/></svg>
